X: 12944
T: Fiddler's Despair
R: reel
M: 4/4
K: Eminor
|:B,EEB, FB,GB,|EEBE AEGE|F2EF DFEF|FFAF BFAF|B,EEB, FB,GB,|
EEBE AEGE|1 F3E DEED|E2ED EDC/B,/A,:|2 F2EF DFEF|GFED E4||
|:BdeB fBgB|BdeB fBgB|cdec fcgc|acgc fcgc|
ABdA eAfA|ddad bdad|bdc'd baga|gfed edBA:|

